images/indikatorenset/4299.svg

<?xml version="1.0" standalone="no"?><!DOCTYPE svg PUBLIC "-//W3C//DTD SVG 1.1//EN" "http://www.w3.org/Graphics/SVG/1.1/DTD/svg11.dtd"><svg xmlns:xlink="http://www.w3.org/1999/xlink" version="1.1" class="highcharts-root" style="font-family:arial;font-size:9pt;" xmlns="http://www.w3.org/2000/svg" width="485" height="415"><desc>Created with Highstock 5.0.14</desc><defs><clipPath id="highcharts-ydt2asl-8"><rect x="0" y="0" width="386" height="235" fill="none"></rect></clipPath><clipPath id="highcharts-ydt2asl-9"><rect x="0" y="0" width="386" height="235" fill="none"></rect></clipPath><clipPath id="highcharts-ydt2asl-10"><rect x="0" y="0" width="386" height="235" fill="none"></rect></clipPath></defs><rect fill="#fbfbfb" class="highcharts-background" x="0" y="0" width="485" height="415" rx="0" ry="0"></rect><rect fill="none" class="highcharts-plot-background" x="58" y="109" width="386" height="235"></rect><g class="highcharts-label" style="cursor:pointer;" transform="translate(10,451)"><text x="0" y="0"><tspan>&gt; Indikator-Details</tspan></text></g><g class="highcharts-pane-group"></g><g class="highcharts-grid highcharts-xaxis-grid "><path fill="none" class="highcharts-grid-line" d="M 100.5 109 L 100.5 344" opacity="1"></path><path fill="none" class="highcharts-grid-line" d="M 143.5 109 L 143.5 344" opacity="1"></path><path fill="none" class="highcharts-grid-line" d="M 186.5 109 L 186.5 344" opacity="1"></path><path fill="none" class="highcharts-grid-line" d="M 229.5 109 L 229.5 344" opacity="1"></path><path fill="none" class="highcharts-grid-line" d="M 271.5 109 L 271.5 344" opacity="1"></path><path fill="none" class="highcharts-grid-line" d="M 314.5 109 L 314.5 344" opacity="1"></path><path fill="none" class="highcharts-grid-line" d="M 357.5 109 L 357.5 344" opacity="1"></path><path fill="none" class="highcharts-grid-line" d="M 400.5 109 L 400.5 344" opacity="1"></path><path fill="none" class="highcharts-grid-line" d="M 443.5 109 L 443.5 344" opacity="1"></path><path fill="none" class="highcharts-grid-line" d="M 57.5 109 L 57.5 344" opacity="1"></path></g><g class="highcharts-grid highcharts-yaxis-grid "><path fill="none" stroke="#e6e6e6" stroke-width="1" class="highcharts-grid-line" d="M 58 344.5 L 444 344.5" opacity="1"></path><path fill="none" stroke="#e6e6e6" stroke-width="1" class="highcharts-grid-line" d="M 58 285.5 L 444 285.5" opacity="1"></path><path fill="none" stroke="#e6e6e6" stroke-width="1" class="highcharts-grid-line" d="M 58 227.5 L 444 227.5" opacity="1"></path><path fill="none" stroke="#e6e6e6" stroke-width="1" class="highcharts-grid-line" d="M 58 168.5 L 444 168.5" opacity="1"></path><path fill="none" stroke="#e6e6e6" stroke-width="1" class="highcharts-grid-line" d="M 58 108.5 L 444 108.5" opacity="1"></path></g><g class="highcharts-grid highcharts-yaxis-grid "><path fill="none" stroke="#e6e6e6" stroke-width="1" class="highcharts-grid-line" d="M 58 344.5 L 444 344.5" opacity="1"></path><path fill="none" stroke="#e6e6e6" stroke-width="1" class="highcharts-grid-line" d="M 58 285.5 L 444 285.5" opacity="1"></path><path fill="none" stroke="#e6e6e6" stroke-width="1" class="highcharts-grid-line" d="M 58 227.5 L 444 227.5" opacity="1"></path><path fill="none" stroke="#e6e6e6" stroke-width="1" class="highcharts-grid-line" d="M 58 168.5 L 444 168.5" opacity="1"></path><path fill="none" stroke="#e6e6e6" stroke-width="1" class="highcharts-grid-line" d="M 58 108.5 L 444 108.5" opacity="1"></path></g><rect fill="none" class="highcharts-plot-border" x="58" y="109" width="386" height="235"></rect><g class="highcharts-axis highcharts-xaxis "><path fill="none" class="highcharts-axis-line" stroke="#ccd6eb" stroke-width="1" d="M 58 344.5 L 444 344.5"></path></g><g class="highcharts-axis highcharts-yaxis "><path fill="none" class="highcharts-axis-line" d="M 58 109 L 58 344"></path></g><g class="highcharts-axis highcharts-yaxis "><text x="475.109375" text-anchor="middle" transform="translate(0,0) rotate(90 475.109375 226.5)" class="highcharts-axis-title" style="color:#000000;font-size:0.9em;fill:#000000;" y="226.5"></text><path fill="none" class="highcharts-axis-line" d="M 444 109 L 444 344"></path></g><g class="highcharts-series-group"><g class="highcharts-series highcharts-series-0 highcharts-column-series highcharts-color-undefined " transform="translate(58,109) scale(1 1)" clip-path="url(#highcharts-ydt2asl-9)"><rect x="267" y="131" width="11" height="105" fill="#FF8028" class="highcharts-point"></rect><rect x="310" y="138" width="11" height="98" fill="#FF8028" class="highcharts-point"></rect><rect x="353" y="148" width="11" height="88" fill="#FF8028" class="highcharts-point"></rect></g><g class="highcharts-markers highcharts-series-0 highcharts-column-series highcharts-color-undefined " transform="translate(58,109) scale(1 1)" clip-path="none"></g><g class="highcharts-series highcharts-series-1 highcharts-line-series highcharts-color-undefined " transform="translate(58,109) scale(1 1)" clip-path="url(#highcharts-ydt2asl-10)"><path fill="none" d="M 278.77777777778 96.9375 L 321.66666666667 108.6875 L 364.55555555556 123.375" class="highcharts-graph" stroke="#DC440E" stroke-width="2" stroke-linejoin="round" stroke-linecap="round"></path></g><g class="highcharts-markers highcharts-series-1 highcharts-line-series highcharts-color-undefined " transform="translate(58,109) scale(1 1)" clip-path="none"></g><g class="highcharts-series highcharts-series-2 highcharts-column-series highcharts-color-undefined " transform="translate(58,109) scale(1 1)" clip-path="url(#highcharts-ydt2asl-9)"><rect x="23" y="50" width="11" height="186" fill="#B375AB" class="highcharts-point"></rect><rect x="66" y="49" width="11" height="187" fill="#B375AB" class="highcharts-point"></rect><rect x="109" y="55" width="11" height="181" fill="#B375AB" class="highcharts-point"></rect><rect x="151" y="52" width="11" height="184" fill="#B375AB" class="highcharts-point"></rect><rect x="194" y="52" width="11" height="184" fill="#B375AB" class="highcharts-point"></rect><rect x="237" y="56" width="11" height="180" fill="#B375AB" class="highcharts-point"></rect><rect x="280" y="64" width="11" height="172" fill="#B375AB" class="highcharts-point"></rect><rect x="323" y="80" width="11" height="156" fill="#B375AB" class="highcharts-point"></rect><rect x="366" y="85" width="11" height="151" fill="#B375AB" class="highcharts-point"></rect></g><g class="highcharts-markers highcharts-series-2 highcharts-column-series highcharts-color-undefined " transform="translate(58,109) scale(1 1)" clip-path="none"></g><g class="highcharts-series highcharts-series-3 highcharts-line-series highcharts-color-undefined " transform="translate(58,109) scale(1 1)" clip-path="url(#highcharts-ydt2asl-10)"><path fill="none" d="M 21.444444444444 49.9375 L 64.333333333333 52.875 L 107.22222222222 61.6875 L 150.11111111111 61.6875 L 193 61.6875 L 235.88888888889 67.5625 L 278.77777777778 79.3125 L 321.66666666667 94 L 364.55555555556 99.875" class="highcharts-graph" stroke="#923F8D" stroke-width="2" stroke-linejoin="round" stroke-linecap="round"></path></g><g class="highcharts-markers highcharts-series-3 highcharts-line-series highcharts-color-undefined " transform="translate(58,109) scale(1 1)" clip-path="none"></g></g><text x="10" text-anchor="start" class="highcharts-title" style="color:#000000;font-size:1.1em;font-weight:bold;fill:#000000;" y="20"><tspan>CO2-Emissionen</tspan></text><text x="10" text-anchor="start" class="highcharts-subtitle" style="color:#000000;font-size:0.9em;fill:#000000;" y="38"><tspan>Tonnen</tspan></text><g class="highcharts-legend" transform="translate(10,40)"><rect fill="none" class="highcharts-legend-box" rx="0" ry="0" x="0" y="0" width="371" height="57" visibility="visible"></rect><g><g><g class="highcharts-legend-item highcharts-column-series highcharts-color-undefined highcharts-series-0" transform="translate(12,7)"><text x="21" style="color:#333333;font-size:1em;font-weight:normal;cursor:pointer;fill:#333333;" text-anchor="start" y="15"><tspan>BS: Tonnen</tspan></text><rect x="2" y="4" width="12" height="12" fill="#FF8028" class="highcharts-point"></rect></g><g class="highcharts-legend-item highcharts-line-series highcharts-color-undefined highcharts-series-1" transform="translate(116.34375,7)"><path fill="none" d="M 0 11 L 16 11" class="highcharts-graph" stroke="#DC440E" stroke-width="2"></path><text x="21" y="15" style="color:#333333;font-size:1em;font-weight:normal;cursor:pointer;fill:#333333;" text-anchor="start"><tspan>BS: Tonnen pro Einwohner (rechte Skala)</tspan></text></g><g class="highcharts-legend-item highcharts-column-series highcharts-color-undefined highcharts-series-2" transform="translate(12,26)"><text x="21" y="15" style="color:#333333;font-size:1em;font-weight:normal;cursor:pointer;fill:#333333;" text-anchor="start"><tspan>BL: Tonnen</tspan></text><rect x="2" y="4" width="12" height="12" fill="#B375AB" class="highcharts-point"></rect></g><g class="highcharts-legend-item highcharts-line-series highcharts-color-undefined highcharts-series-3" transform="translate(115.015625,26)"><path fill="none" d="M 0 11 L 16 11" class="highcharts-graph" stroke="#923F8D" stroke-width="2"></path><text x="21" y="15" style="color:#333333;font-size:1em;font-weight:normal;cursor:pointer;fill:#333333;" text-anchor="start"><tspan>BL: Tonnen pro Einwohner (rechte Skala)</tspan></text></g></g></g></g><g class="highcharts-axis-labels highcharts-xaxis-labels "><text x="79.44444444444444" style="color:#000000;cursor:default;font-size:0.9em;fill:#000000;" text-anchor="middle" transform="translate(0,0)" y="363" opacity="1">1990</text><text x="122.33333333333333" style="color:#000000;cursor:default;font-size:0.9em;fill:#000000;" text-anchor="middle" transform="translate(0,0)" y="363" opacity="1">1995</text><text x="165.22222222222223" style="color:#000000;cursor:default;font-size:0.9em;fill:#000000;" text-anchor="middle" transform="translate(0,0)" y="363" opacity="1">2000</text><text x="208.1111111111111" style="color:#000000;cursor:default;font-size:0.9em;fill:#000000;" text-anchor="middle" transform="translate(0,0)" y="363" opacity="1">2002</text><text x="251" style="color:#000000;cursor:default;font-size:0.9em;fill:#000000;" text-anchor="middle" transform="translate(0,0)" y="363" opacity="1">2004</text><text x="293.88888888888886" style="color:#000000;cursor:default;font-size:0.9em;fill:#000000;" text-anchor="middle" transform="translate(0,0)" y="363" opacity="1">2006</text><text x="336.77777777777777" style="color:#000000;cursor:default;font-size:0.9em;fill:#000000;" text-anchor="middle" transform="translate(0,0)" y="363" opacity="1">2010</text><text x="379.66666666666663" style="color:#000000;cursor:default;font-size:0.9em;fill:#000000;" text-anchor="middle" transform="translate(0,0)" y="363" opacity="1">2012</text><text x="422.55555555555554" style="color:#000000;cursor:default;font-size:0.9em;fill:#000000;" text-anchor="middle" transform="translate(0,0)" y="363" opacity="1">2014</text></g><g class="highcharts-axis-labels highcharts-yaxis-labels "><text x="43" style="color:#000000;cursor:default;font-size:0.9em;fill:#000000;" text-anchor="end" transform="translate(0,0)" y="349" opacity="1"><tspan>0</tspan></text><text x="43" style="color:#000000;cursor:default;font-size:0.9em;fill:#000000;" text-anchor="end" transform="translate(0,0)" y="290" opacity="1"><tspan>500k</tspan></text><text x="43" style="color:#000000;cursor:default;font-size:0.9em;fill:#000000;" text-anchor="end" transform="translate(0,0)" y="231" opacity="1"><tspan>1 000k</tspan></text><text x="43" style="color:#000000;cursor:default;font-size:0.9em;fill:#000000;" text-anchor="end" transform="translate(0,0)" y="172" opacity="1"><tspan>1 500k</tspan></text><text x="43" style="color:#000000;cursor:default;font-size:0.9em;fill:#000000;" text-anchor="end" transform="translate(0,0)" y="114" opacity="1"><tspan>2 000k</tspan></text></g><g class="highcharts-axis-labels highcharts-yaxis-labels "><text x="459" style="color:#000000;cursor:default;font-size:0.9em;fill:#000000;" text-anchor="start" transform="translate(0,0)" y="349" opacity="1"><tspan>0</tspan></text><text x="459" style="color:#000000;cursor:default;font-size:0.9em;fill:#000000;" text-anchor="start" transform="translate(0,0)" y="290" opacity="1"><tspan>2</tspan></text><text x="459" style="color:#000000;cursor:default;font-size:0.9em;fill:#000000;" text-anchor="start" transform="translate(0,0)" y="231" opacity="1"><tspan>4</tspan></text><text x="459" style="color:#000000;cursor:default;font-size:0.9em;fill:#000000;" text-anchor="start" transform="translate(0,0)" y="172" opacity="1"><tspan>6</tspan></text><text x="459" style="color:#000000;cursor:default;font-size:0.9em;fill:#000000;" text-anchor="start" transform="translate(0,0)" y="114" opacity="1"><tspan>8</tspan></text></g><text x="10" class="highcharts-credits" text-anchor="start" style="cursor:default;color:#000000;font-size:0.8em;fill:#000000;" y="400"><tspan>Quelle: Statistisches Amt Basel-Stadt; Statistisches Amt Basel-Landschaft</tspan></text></svg>

<svg class="highcharts-root" xmlns="http://www.w3.org/2000/svg" width="485" height="415" font-family="arial" font-size="12">
    <defs>
        <clipPath id="a">
            <path fill="none" d="M0 0h386v235H0z"/>
        </clipPath>
        <clipPath id="b">
            <path fill="none" d="M0 0h386v235H0z"/>
        </clipPath>
    </defs>
    <rect fill="#fbfbfb" class="highcharts-background" width="485" height="415" rx="0" ry="0"/>
    <path fill="none" class="highcharts-plot-background" d="M58 109h386v235H58z"/>
    <text transform="translate(10 451)" class="highcharts-label" cursor="pointer">
        <tspan>&gt; Indikator-Details</tspan>
    </text>
    <g class="highcharts-grid highcharts-xaxis-grid">
        <path fill="none" class="highcharts-grid-line" d="M100.5 109v235m43-235v235m43-235v235m43-235v235m42-235v235m43-235v235m43-235v235m43-235v235m43-235v235m-386-235v235"/>
    </g>
    <g class="highcharts-grid highcharts-yaxis-grid">
        <path fill="none" stroke="#e6e6e6" class="highcharts-grid-line" d="M58 344.5h386m-386-59h386m-386-58h386m-386-59h386m-386-60h386"/>
    </g>
    <g class="highcharts-grid highcharts-yaxis-grid">
        <path fill="none" stroke="#e6e6e6" class="highcharts-grid-line" d="M58 344.5h386m-386-59h386m-386-58h386m-386-59h386m-386-60h386"/>
    </g>
    <path fill="none" class="highcharts-plot-border" d="M58 109h386v235H58z"/>
    <g class="highcharts-axis highcharts-xaxis">
        <path fill="none" class="highcharts-axis-line" stroke="#ccd6eb" d="M58 344.5h386"/>
    </g>
    <g class="highcharts-axis highcharts-yaxis">
        <path fill="none" class="highcharts-axis-line" d="M58 109v235"/>
    </g>
    <g class="highcharts-axis highcharts-yaxis">
        <path fill="none" class="highcharts-axis-line" d="M444 109v235"/>
    </g>
    <g class="highcharts-series-group">
        <g class="highcharts-series highcharts-series-0 highcharts-column-series highcharts-color-undefined" transform="translate(58 109)" clip-path="url(#a)">
            <path fill="#FF8028" class="highcharts-point" d="M267 131h11v105h-11zm43 7h11v98h-11zm43 10h11v88h-11z"/>
        </g>
        <g class="highcharts-series highcharts-series-1 highcharts-line-series highcharts-color-undefined" transform="translate(58 109)" clip-path="url(#b)">
            <path fill="none" d="M278.778 96.938l42.889 11.75 42.889 14.687" class="highcharts-graph" stroke="#DC440E" stroke-width="2" stroke-linejoin="round" stroke-linecap="round"/>
        </g>
        <g class="highcharts-series highcharts-series-2 highcharts-column-series highcharts-color-undefined" transform="translate(58 109)" clip-path="url(#a)">
            <path fill="#B375AB" class="highcharts-point" d="M23 50h11v186H23zm43-1h11v187H66zm43 6h11v181h-11zm42-3h11v184h-11zm43 0h11v184h-11zm43 4h11v180h-11zm43 8h11v172h-11zm43 16h11v156h-11zm43 5h11v151h-11z"/>
        </g>
        <g class="highcharts-series highcharts-series-3 highcharts-line-series highcharts-color-undefined" transform="translate(58 109)" clip-path="url(#b)">
            <path fill="none" d="M21.444 49.938l42.89 2.937 42.888 8.813H193l42.889 5.874 42.889 11.75L321.667 94l42.889 5.875" class="highcharts-graph" stroke="#923F8D" stroke-width="2" stroke-linejoin="round" stroke-linecap="round"/>
        </g>
    </g>
    <text x="10" class="highcharts-title" y="20" color="#000" font-size="1.1em" font-weight="700">
        <tspan>CO2-Emissionen</tspan>
    </text>
    <text x="10" class="highcharts-subtitle" y="38" color="#000" font-size=".9em">
        <tspan>Tonnen</tspan>
    </text>
    <g class="highcharts-legend" transform="translate(10 40)">
        <rect fill="none" class="highcharts-legend-box" rx="0" ry="0" width="371" height="57"/>
        <g class="highcharts-legend-item highcharts-column-series highcharts-color-undefined highcharts-series-0">
            <text x="21" y="15" color="#333" font-size="1em" font-weight="400" cursor="pointer" fill="#333" transform="translate(12 7)">
                <tspan>BS: Tonnen</tspan>
            </text>
            <path fill="#FF8028" class="highcharts-point" d="M14 11h12v12H14z"/>
        </g>
        <g class="highcharts-legend-item highcharts-line-series highcharts-color-undefined highcharts-series-1">
            <path fill="none" d="M116.344 18h16" class="highcharts-graph" stroke="#DC440E" stroke-width="2"/>
            <text x="21" y="15" color="#333" font-size="1em" font-weight="400" cursor="pointer" fill="#333" transform="translate(116.344 7)">
                <tspan>BS: Tonnen pro Einwohner (rechte Skala)</tspan>
            </text>
        </g>
        <g class="highcharts-legend-item highcharts-column-series highcharts-color-undefined highcharts-series-2">
            <text x="21" y="15" color="#333" font-size="1em" font-weight="400" cursor="pointer" fill="#333" transform="translate(12 26)">
                <tspan>BL: Tonnen</tspan>
            </text>
            <path fill="#B375AB" class="highcharts-point" d="M14 30h12v12H14z"/>
        </g>
        <g class="highcharts-legend-item highcharts-line-series highcharts-color-undefined highcharts-series-3">
            <path fill="none" d="M115.016 37h16" class="highcharts-graph" stroke="#923F8D" stroke-width="2"/>
            <text x="21" y="15" color="#333" font-size="1em" font-weight="400" cursor="pointer" fill="#333" transform="translate(115.016 26)">
                <tspan>BL: Tonnen pro Einwohner (rechte Skala)</tspan>
            </text>
        </g>
    </g>
    <g class="highcharts-axis-labels highcharts-xaxis-labels" text-anchor="middle" color="#000" cursor="default" font-size=".9em">
        <text x="79.444" y="363">
            1990
        </text>
        <text x="122.333" y="363">
            1995
        </text>
        <text x="165.222" y="363">
            2000
        </text>
        <text x="208.111" y="363">
            2002
        </text>
        <text x="251" y="363">
            2004
        </text>
        <text x="293.889" y="363">
            2006
        </text>
        <text x="336.778" y="363">
            2010
        </text>
        <text x="379.667" y="363">
            2012
        </text>
        <text x="422.556" y="363">
            2014
        </text>
    </g>
    <g class="highcharts-axis-labels highcharts-yaxis-labels" text-anchor="end" color="#000" cursor="default" font-size=".9em">
        <text x="43" y="349">
            <tspan>0</tspan>
        </text>
        <text x="43" y="290">
            <tspan>500k</tspan>
        </text>
        <text x="43" y="231">
            <tspan>1 000k</tspan>
        </text>
        <text x="43" y="172">
            <tspan>1 500k</tspan>
        </text>
        <text x="43" y="114">
            <tspan>2 000k</tspan>
        </text>
    </g>
    <g class="highcharts-axis-labels highcharts-yaxis-labels" color="#000" cursor="default" font-size=".9em">
        <text x="459" y="349">
            <tspan>0</tspan>
        </text>
        <text x="459" y="290">
            <tspan>2</tspan>
        </text>
        <text x="459" y="231">
            <tspan>4</tspan>
        </text>
        <text x="459" y="172">
            <tspan>6</tspan>
        </text>
        <text x="459" y="114">
            <tspan>8</tspan>
        </text>
    </g>
    <text x="10" class="highcharts-credits" y="400" cursor="default" color="#000" font-size=".8em">
        <tspan>Quelle: Statistisches Amt Basel-Stadt; Statistisches Amt Basel-Landschaft</tspan>
    </text>
</svg>
